svgs/renfe.svg

<svg xmlns="http://www.w3.org/2000/svg" viewBox="0 0 192 192"><path d="M111.55 143.82c.6-1.204 2.12-2.619 3.379-3.145 3.094-1.294 4.768-7.288 6.632-23.749 6.331-55.902 7.035-59.692 12.021-64.8 3.419-3.501 9.42-6.441 11.63-5.697 1.051.354.331 1.545-2.18 3.605-4.141 3.397-6.464 9.792-7.5 20.641l-.633 6.636h3.888c4.333 0 4.392 2.215.097 3.645-3.658 1.219-4.506 4.241-6.769 24.119-3.054 26.835-5.878 34.467-14.293 38.628-6.075 3.005-7.727 3.036-6.272.117Zm-60.055-25.418c-5.878-.884-7.881-4.698-7.697-14.657.165-8.87 2.642-18.039 5.954-22.034 5.265-6.351 21.646-7.584 25.409-1.913 2.157 3.251 2.328 11.124.344 15.84-1.908 4.538-6.854 6.634-15.675 6.645-6.383.008-7.266.352-7.266 2.833 0 1.553.567 4.114 1.259 5.691 1.056 2.406 2.553 2.857 9.307 2.806 6.509-.05 7.953.355 7.548 2.115-.287 1.244-1.808 2.177-3.552 2.177-1.678 0-4.902.259-7.165.575-2.264.317-6.073.281-8.466-.078Zm14.536-24.03c4.856-6.361 2.384-15.084-3.801-13.413-4.077 1.103-5.334 2.964-7.291 10.794l-1.462 5.855h5.042c3.682 0 5.709-.873 7.512-3.236Zm-50.029 20.583c0-4.801 2.888-28.717 3.817-31.607.471-1.466 2.339-3.48 4.152-4.476 3.613-1.986 20.547-2.986 21.577-1.275 1.654 2.75-1.156 4.398-7.502 4.398-8.909 0-9.935 1.913-11.612 21.652l-1.212 14.258h-4.61c-3.895 0-4.61-.457-4.61-2.95Zm65.996-3.686c.336-3.649 1.277-12.783 2.092-20.297l1.481-13.661h26.857l2.026 4.289c2.152 4.558 2.154 4.195-.142 26.547l-1.003 9.758h-4.701c-4.415 0-4.666-.213-4.142-3.513.308-1.932 1.059-8.922 1.671-15.533 1.416-15.309.801-16.864-6.67-16.864H94.1l-1.679 16.003c-.923 8.802-1.876 16.882-2.118 17.955-.263 1.166-2.147 1.952-4.678 1.952h-4.238Zm61.48 2.342c-1.661-3.505-1.93-5.565-1.468-11.219.729-8.921 3.189-17.068 6.294-20.844 3.265-3.97 15.157-6.814 20.497-4.902 7.575 2.711 9.409 14.176 3.452 21.583-2.062 2.565-4.352 3.295-11.903 3.801-8.01.535-9.349 1.003-9.349 3.268 0 1.453.567 3.932 1.259 5.509 1.058 2.411 2.556 2.857 9.408 2.805 6.867-.053 7.978.28 7.064 2.115-.816 1.638-3.83 2.178-12.153 2.178-10.955 0-11.087-.044-13.101-4.294Zm20.99-19.239c4.95-6.484 1.942-15.293-4.531-13.27-3.718 1.161-5.905 4.927-6.698 11.534l-.597 4.972h4.678c3.313 0 5.399-.944 7.148-3.236Z"/></svg>

<svg
    xmlns="http://www.w3.org/2000/svg"
    viewBox="0 0 192 192"
    id="vector">
    <path
        id="path"
        d="M 111.55 143.82 C 112.15 142.616 113.67 141.201 114.929 140.675 C 118.023 139.381 119.697 133.387 121.561 116.926 C 127.892 61.024 128.596 57.234 133.582 52.126 C 137.001 48.625 143.002 45.685 145.212 46.429 C 146.263 46.783 145.543 47.974 143.032 50.034 C 138.891 53.431 136.568 59.826 135.532 70.675 L 134.899 77.311 L 138.787 77.311 C 143.12 77.311 143.179 79.526 138.884 80.956 C 135.226 82.175 134.378 85.197 132.115 105.075 C 129.061 131.91 126.237 139.542 117.822 143.703 C 111.747 146.708 110.095 146.739 111.55 143.82 Z M 51.495 118.402 C 45.617 117.518 43.614 113.704 43.798 103.745 C 43.963 94.875 46.44 85.706 49.752 81.711 C 55.017 75.36 71.398 74.127 75.161 79.798 C 77.318 83.049 77.489 90.922 75.505 95.638 C 73.597 100.176 68.651 102.272 59.83 102.283 C 53.447 102.291 52.564 102.635 52.564 105.116 C 52.564 106.669 53.131 109.23 53.823 110.807 C 54.879 113.213 56.376 113.664 63.13 113.613 C 69.639 113.563 71.083 113.968 70.678 115.728 C 70.391 116.972 68.87 117.905 67.126 117.905 C 65.448 117.905 62.224 118.164 59.961 118.48 C 57.697 118.797 53.888 118.761 51.495 118.402 Z M 66.031 94.372 C 70.887 88.011 68.415 79.288 62.23 80.959 C 58.153 82.062 56.896 83.923 54.939 91.753 L 53.477 97.608 L 58.519 97.608 C 62.201 97.608 64.228 96.735 66.031 94.372 Z M 16.002 114.955 C 16.002 110.154 18.89 86.238 19.819 83.348 C 20.29 81.882 22.158 79.868 23.971 78.872 C 27.584 76.886 44.518 75.886 45.548 77.597 C 47.202 80.347 44.392 81.995 38.046 81.995 C 29.137 81.995 28.111 83.908 26.434 103.647 L 25.222 117.905 L 20.612 117.905 C 16.717 117.905 16.002 117.448 16.002 114.955 Z M 81.998 111.269 C 82.334 107.62 83.275 98.486 84.09 90.972 L 85.571 77.311 L 112.428 77.311 L 114.454 81.6 C 116.606 86.158 116.608 85.795 114.312 108.147 L 113.309 117.905 L 108.608 117.905 C 104.193 117.905 103.942 117.692 104.466 114.392 C 104.774 112.46 105.525 105.47 106.137 98.859 C 107.553 83.55 106.938 81.995 99.467 81.995 L 94.1 81.995 L 92.421 97.998 C 91.498 106.8 90.545 114.88 90.303 115.953 C 90.04 117.119 88.156 117.905 85.625 117.905 L 81.387 117.905 Z M 143.478 113.611 C 141.817 110.106 141.548 108.046 142.01 102.392 C 142.739 93.471 145.199 85.324 148.304 81.548 C 151.569 77.578 163.461 74.734 168.801 76.646 C 176.376 79.357 178.21 90.822 172.253 98.229 C 170.191 100.794 167.901 101.524 160.35 102.03 C 152.34 102.565 151.001 103.033 151.001 105.298 C 151.001 106.751 151.568 109.23 152.26 110.807 C 153.318 113.218 154.816 113.664 161.668 113.612 C 168.535 113.559 169.646 113.892 168.732 115.727 C 167.916 117.365 164.902 117.905 156.579 117.905 C 145.624 117.905 145.492 117.861 143.478 113.611 Z M 164.468 94.372 C 169.418 87.888 166.41 79.079 159.937 81.102 C 156.219 82.263 154.032 86.029 153.239 92.636 L 152.642 97.608 L 157.32 97.608 C 160.633 97.608 162.719 96.664 164.468 94.372 Z"
        fill="#000000"
        stroke-width="12"/>
</svg>
